X:115
T:My Lover Wounded
T:Mo ghradh fo leoin
R:Slow Air
S:Simon Fraser Collection
N:No.84
O:Scottish
M:3/4
L:1/8
Q:1/4=100
K:G
D G>A|B2d z/e/ d>B|A2 G z/D/ G>A|B2 dz/B/ A>G|G3:|
B d>e|d2c z/B/ d>e|d2e z/f/ g>f|e2d z/B/ A>B|e2 zd g>f|e2d z/B/ d>B|
A2G z/D/ G>A|B2d z/B/ A>G|G3||

